data/sheikah/6.svg

<!-- Generated by IcoMoon.io -->
<svg version="1.1" xmlns="http://www.w3.org/2000/svg" width="1024" height="1024" viewBox="0 0 1024 1024">
<title></title>
<g id="icomoon-ignore">
</g>
<path d="M870.5 273l-119.5-119.5h-179l-119.5 119.5v478l119.5 119.5h179l119.5-119.5h-298.5v-478h298.5zM273 870.5l-119.5-119.5v-478l119.5-119.5v717zM870.5 452v119.5h-119.5v-119.5h119.5z"></path>
</svg>

<svg xmlns="http://www.w3.org/2000/svg" width="1024" height="1024" viewBox="0 0 1024 1024">
  <title/>
  <path d="M870.5 273 751 153.5H572L452.5 273v478L572 870.5h179L870.5 751H572V273zM273 870.5 153.5 751V273L273 153.5zM870.5 452v119.5H751V452z"/>
</svg>
